X:1
T:Title
%%score { ( 1 3 ) | 2 }
L:1/8
M:4/4
K:G
V:1 treble nm="Grand Piano"
V:3 treble 
V:2 bass 
V:1
 z4 z2[Q:1/4=100] DD | G2 G>G F2 DD | c[Ec][Fc][Dc] [DB]2 DD | E[DF][DG]A B2 AG | d6 DD | %5
 [B,G][B,G] [B,G]>[DG] F2 D2 | c[Ec][Fc][Dc] [DB]2 DD | E[DF][DG][EA] [DB]2 [CFA]>[B,G] | %8
[M:3/4] [B,G]6 |[M:1/4] d>e |[M:4/4] d6 z2 | d6 z2 | e3 d cB A>G | A6 DD | %14
 BB [CFA]>[CFA] [B,G]2 [G,DG][G,DF] | [G,CE][G,EG][G,DF][G,CE] [B,D]2 [B,D][B,D] | %16
 [DG]2 G>G B2 [CFA]>[B,G] | [B,G]6 z2 |] %18
V:2
 z4 z2 [G,B,][G,B,] | [G,B,D]2 [G,B,D]>[G,B,D] [D,A,D]2 [D,F,][D,F,] | %2
 [D,F,D][D,G,][D,A,][D,F,] [A,,G,]2 [B,,G,][B,,G,] | %3
 [C,G,C][C,A,][B,,G,][D,F,D] [G,D]2 [E,A,^C][E,A,C] | [D,F,D]6 [D,F,][D,F,] | %5
 [G,,G,][G,,G,] [G,,G,]>[B,,G,] [D,A,D]2 [D,F,]2 | %6
 [D,F,D][D,G,][D,A,][D,F,] [G,,G,]2 [B,,G,][B,,G,] | [C,G,C][C,A,][B,,G,][C,G,] [D,G,]2 D,>D, | %8
[M:3/4] G,,6 |[M:1/4] z2 |[M:4/4] z2 [D,A,]>[D,B,] [D,C]2 z2 | %11
 z2 [G,B,]>[G,C] [G,D]2 [G,B,][G,B,] | [CG]3 [B,DG] [A,DF][G,DG][K:bass] [F,D]>[E,A,C] | %13
 [D,F,D]6 [F,C][F,C] | [G,B,D][G,DG][K:bass] D,>D, E,2 B,,B,, | C,C,C,C, [G,,G,]2 [G,,G,][G,,G,] | %16
 [B,,G,]2 [E,G,B,]>[E,G,B,] [D,G,D]2 D,>D, | G,,6 z2 |] %18
V:3
 x8 | x8 | x8 | x8 | x8 | x8 | x8 | x8 |[M:3/4] x6 |[M:1/4] x2 |[M:4/4] z2 F>G A2 d>e | %11
 z2 G>A B2 GG | x8 | x8 | x8 | x8 | x8 | x8 |] %18

